components/Common/Svg/svgs/scalability.svg

<svg
  width="90"
  height="90"
  viewBox="0 0 90 90"
  fill="none"
  xmlns="http://www.w3.org/2000/svg"
>
  <circle
    opacity="0.5"
    cx="45"
    cy="45"
    r="45"
    fill="#FFE603"
  ></circle>
  <path
    d="M56.5624 60H33.4376C31.5413 60 30 58.4587 30 56.5624V33.4376C30 31.5413 31.5413 30 33.4376 30H56.5624C58.4587 30 60 31.5413 60 33.4376V56.5624C60 58.4587 58.4587 60 56.5624 60V60ZM33.4376 31.875C32.5763 31.875 31.875 32.5763 31.875 33.4376V56.5624C31.875 57.4237 32.5763 58.125 33.4376 58.125H56.5624C57.4237 58.125 58.125 57.4237 58.125 56.5624V33.4376C58.125 32.5763 57.4237 31.875 56.5624 31.875H33.4376Z"
    fill="#161616"
  ></path>
  <path
    d="M54.0626 45.0001C53.5451 45.0001 53.1251 44.5801 53.1251 44.0626V36.875H45.9375C45.42 36.875 45 36.455 45 35.9375C45 35.42 45.42 35 45.9375 35H54.0626C54.5801 35 55.0001 35.42 55.0001 35.9375V44.0626C55.0001 44.5801 54.5801 45.0001 54.0626 45.0001V45.0001Z"
    fill="#161616"
  ></path>
  <path
    d="M43.437 47.5001C43.1972 47.5001 42.9571 47.4088 42.7747 47.225C42.4084 46.8588 42.4084 46.265 42.7747 45.8988L53.3996 35.2737C53.7658 34.9075 54.3595 34.9075 54.726 35.2737C55.0922 35.6401 55.0922 36.2338 54.726 36.6001L44.1008 47.225C43.917 47.4088 43.6771 47.5001 43.437 47.5001V47.5001Z"
    fill="#161616"
  ></path>
  <path
    d="M40.3125 60C39.795 60 39.375 59.58 39.375 59.0625V50.625H30.9375C30.42 50.625 30 50.205 30 49.6875C30 49.17 30.42 48.75 30.9375 48.75H40.3125C40.83 48.75 41.25 49.17 41.25 49.6875V59.0625C41.25 59.58 40.83 60 40.3125 60Z"
    fill="#161616"
  ></path>
</svg>

<svg width="90" height="90" viewBox="0 0 90 90" fill="none" xmlns="http://www.w3.org/2000/svg"><circle opacity=".5" cx="45" cy="45" r="45" fill="#FFE603"/><path d="M56.562 60H33.438A3.44 3.44 0 0 1 30 56.562V33.438A3.44 3.44 0 0 1 33.438 30h23.124A3.44 3.44 0 0 1 60 33.438v23.124A3.44 3.44 0 0 1 56.562 60ZM33.438 31.875c-.862 0-1.563.701-1.563 1.563v23.124c0 .862.701 1.563 1.563 1.563h23.124c.862 0 1.563-.701 1.563-1.563V33.438c0-.862-.701-1.563-1.563-1.563H33.438Z" fill="#161616"/><path d="M54.063 45a.938.938 0 0 1-.938-.937v-7.188h-7.188a.938.938 0 0 1 0-1.875h8.126c.517 0 .937.42.937.938v8.125c0 .517-.42.937-.937.937Z" fill="#161616"/><path d="M43.437 47.5a.938.938 0 0 1-.662-1.601L53.4 35.274a.938.938 0 0 1 1.326 1.326L44.101 47.225a.935.935 0 0 1-.664.275ZM40.313 60a.938.938 0 0 1-.938-.938v-8.437h-8.438a.938.938 0 0 1 0-1.875h9.375c.518 0 .938.42.938.938v9.374c0 .518-.42.938-.938.938Z" fill="#161616"/></svg>
